X: 107
T: REEL: Maids of Mount Kisco
C: C: Paddy Killoran (?); S: Various
C: Set Leaders: Mars, Anton
Z: [Unedited]; Torc at The Session
N: https://thesession.org/members/26966/sets/94255
R: Reel
M: 4/4
L: 1/8
Q: 1/2=100
K: Ador
|:EA~A2 BGAG|EA~A2 BGAG|EG~G2 AG~G2|EG~G2 EGDG|
EA~A2 BGAG|EA~A2 BABd|e~g3 afge|1 dBGB ~A3G:|2 dBGB A2dB||
|:~A3B dBAB|G2BG DGBG|~A3B dGBd|1 efge dBGB:|2 efge d2 Bd||
|:ea~a2 bgaf|gedB GABd|ea~a2 bgaf|gede g2eg|
~a3f ~g3e|dedB GABd|eA~A2 efge|1 dBGB A2 Bd:|2 dBGB ~A3G||

